X:65
T:Batheing Machine THO3.065
O:England;London
M:6/8
L:1/8
Z:vmp. Peter Dunk 2011.from a transcription by Fynn Titford-Mock 2006-9
B:Thompson's Compleat Collection of 200 Favourite Country Dances Vol. III.1765-72
Q:3/8=100
K:G
d|BGd BGd|BGd Td2 g|ecg ecg|eca Ta2 b|
gea fdg|ecd Td2 c|BGB cAc|BGG TG2:|
|:d|egd fad|gbd fad|egd fad|gbd e2 g|
dBg eca|fdb e2 g|dBg cAc|BGG G2:|

